images/icons/user.svg

<svg viewBox="0 0 24 24" fill="none" xmlns="http://www.w3.org/2000/svg">
<path fill-rule="evenodd" clip-rule="evenodd" d="M12 3.84999C10.2603 3.84999 8.85002 5.2603 8.85002 6.99999C8.85002 8.73969 10.2603 10.15 12 10.15C13.7397 10.15 15.15 8.73969 15.15 6.99999C15.15 5.2603 13.7397 3.84999 12 3.84999ZM7.15002 6.99999C7.15002 4.32141 9.32144 2.14999 12 2.14999C14.6786 2.14999 16.85 4.32141 16.85 6.99999C16.85 9.67858 14.6786 11.85 12 11.85C9.32144 11.85 7.15002 9.67858 7.15002 6.99999ZM7.43041 15.7854C6.25402 16.3736 5.85002 17.0289 5.85002 17.5C5.85002 17.9711 6.25402 18.6264 7.43041 19.2146C8.55596 19.7774 10.1704 20.15 12 20.15C13.8297 20.15 15.4441 19.7774 16.5696 19.2146C17.746 18.6264 18.15 17.9711 18.15 17.5C18.15 17.0289 17.746 16.3736 16.5696 15.7854C15.4441 15.2226 13.8297 14.85 12 14.85C10.1704 14.85 8.55596 15.2226 7.43041 15.7854ZM6.67015 14.2649C8.0781 13.5609 9.96368 13.15 12 13.15C14.0364 13.15 15.922 13.5609 17.3299 14.2649C18.687 14.9434 19.85 16.0381 19.85 17.5C19.85 18.9619 18.687 20.0566 17.3299 20.7351C15.922 21.4391 14.0364 21.85 12 21.85C9.96368 21.85 8.0781 21.4391 6.67015 20.7351C5.31304 20.0566 4.15002 18.9619 4.15002 17.5C4.15002 16.0381 5.31304 14.9434 6.67015 14.2649Z" fill="#1C1C1C"/>
</svg>

<svg xmlns="http://www.w3.org/2000/svg" fill="none" viewBox="0 0 24 24"><path fill="#1C1C1C" fill-rule="evenodd" d="M12 3.85a3.15 3.15 0 1 0 0 6.3 3.15 3.15 0 0 0 0-6.3M7.15 7a4.85 4.85 0 1 1 9.7 0 4.85 4.85 0 0 1-9.7 0m.28 8.785c-1.176.589-1.58 1.244-1.58 1.715s.404 1.126 1.58 1.715c1.126.562 2.74.935 4.57.935s3.444-.373 4.57-.935c1.176-.589 1.58-1.244 1.58-1.715s-.404-1.126-1.58-1.715c-1.126-.562-2.74-.935-4.57-.935s-3.444.373-4.57.935m-.76-1.52C8.078 13.56 9.964 13.15 12 13.15s3.922.41 5.33 1.115c1.357.678 2.52 1.773 2.52 3.235s-1.163 2.557-2.52 3.235c-1.408.704-3.294 1.115-5.33 1.115s-3.922-.41-5.33-1.115c-1.357-.678-2.52-1.773-2.52-3.235s1.163-2.557 2.52-3.235" clip-rule="evenodd"/></svg>
